src/icons/icons_set_01/011-instagram.svg

<svg height="50" viewBox="0 0 50 50" width="50" xmlns="http://www.w3.org/2000/svg"><g transform="translate(3.995 3.995)"><path d="m41.7569277 12.3853578c-.0391136-1.7293379-.3667068-3.4400078-.9692669-5.06144575-.5247307-1.39417289-1.3488634-2.65628833-2.4143096-3.69738615-1.0441084-1.06661699-2.3073562-1.89381547-3.7024476-2.42443253-1.3286295-.50614457-2.8445325-.87056867-5.0740994-.97179759-2.2295669-.10122891-2.9356385-.11641325-8.6044578-.11641325s-6.3850139.02530723-8.6044578.12653615c-2.219444.10122891-3.74040848.45553012-5.06144583.96926686-1.39797502.52186167-2.66381171 1.34530357-3.70750904 2.41177892-1.06141595 1.04538544-1.88490479 2.30737779-2.41430963 3.69991687-.50614458 1.32609879-.87056868 2.84200177-.96926687 5.07409937s-.12400542 2.9356386-.12400542 8.6044579c0 5.6688192.02530723 6.3850138.12400542 8.6044578s.45553012 3.7404084.96926687 5.0614458c.524698 1.3949291 1.34881051 2.6578773 2.41430963 3.6999168 1.0447966 1.0603233 2.30590787 1.8829373 3.69738615 2.411779 1.32609879.5061445 2.84453252.8705686 5.06144582.9692668 2.2169132.0986982 2.9356385.1265362 8.6044578.1265362s6.3850138-.0253073 8.6044578-.1265362 3.7404085-.4555301 5.0740994-.9692668c1.3943524-.5231772 2.6566155-1.3465423 3.6973862-2.411779 1.061416-1.0453854 1.8849046-2.3073777 2.4143096-3.6999168.5061446-1.3260988.8705687-2.8420018.9692669-5.0614458s.1240054-2.9331078.1240054-8.6044578-.0075922-6.3824832-.1088211-8.6145808zm-3.7555928 17.0570723c-.091106 2.0397627-.4327536 3.1431579-.721256 3.8795982-.3345309.9072821-.8670851 1.7285913-1.5589253 2.4041868-.6731584.6960138-1.496302 1.2291961-2.4067175 1.5589253-.7364403.2809102-1.8398355.63015-3.8795981.721256-2.2067904.1012289-2.8597169.1265361-8.4399609.1265361s-6.2357012-.0253072-8.4399608-.1265361c-2.0397627-.091106-3.14315787-.4302229-3.88212895-.721256-.90774312-.3336098-1.72924432-.8662885-2.40418675-1.5589253-.69569235-.6724318-1.22885432-1.4946784-1.5589253-2.4041868-.28091024-.7364403-.63015-1.8398355-.72125602-3.8795982-.0986982-2.2067903-.12400542-2.8597168-.12400542-8.4424915s.02530722-6.2331705.12400542-8.4399609c.09110602-2.0397626.43022289-3.14315782.72125602-3.87959818.33453102-.9072821.86708524-1.72859134 1.5589253-2.40418675.67163012-.69666537 1.49411708-1.22998325 2.40418675-1.5589253.73897108-.28091024 1.84236625-.63015 3.88212895-.72125602 2.2042596-.10122892 2.8597168-.12653615 8.4399608-.12653615s6.2331705.02530723 8.4399609.12653615c2.0397626.09110602 3.1431578.43022289 3.8795981.72125602.908998.33257601 1.7315406.8653692 2.4067175 1.5589253.6956924.6724318 1.2288543 1.49467835 1.5589253 2.40418675.2809103.73644036.63015 1.83983558.721256 3.87959818.0986982 2.2042596.1240055 2.8597169.1240055 8.4399609 0 5.5802439-.0227765 6.2357012-.1214747 8.4424915z"/><path d="m21.005 10.2722042c-4.3391924-.0030704-8.2529221 2.6081629-9.9160599 6.6159768-1.66313772 4.007814-.7481205 8.6228506 2.3183423 11.692933 3.0664628 3.0700822 7.6804169 3.9905431 11.69019 2.3321343s6.6256214-5.5690554 6.6276698-9.9082483c.0013997-5.9231989-4.7969458-10.727208-10.7201422-10.7327958zm0 17.6922838c-2.8180466.0030712-5.3602234-1.6923861-6.440299-4.2952369s-.4851656-5.6000695 1.5071331-7.5930929c1.9922986-1.9930234 4.9893007-2.5890235 7.5925443-1.5098946 2.6032434 1.0791289 4.2996252 3.6206889 4.2975788 6.4387364-.0013957 3.8420528-3.1149052 6.956695-6.9569572 6.959488z"/><path d="m34.6531886 9.84957349c-.0041975 1.37998911-1.1245751 2.49620731-2.5045704 2.49527171-1.3799951-.0009357-2.4988584-1.1186721-2.5011843-2.49866563-.0023263-1.37999355 1.1127626-2.50149542 2.4927468-2.50708318.6642452-.00000033 1.3012474.26404307 1.7707023.73397255.4694547.46992945.7328543 1.10719837.7321827 1.77144311z"/></g></svg>

<?xml version="1.0" encoding="UTF-8"?>
<svg width="50px" height="50px" viewBox="0 0 50 50" version="1.1" xmlns="http://www.w3.org/2000/svg" xmlns:xlink="http://www.w3.org/1999/xlink">
    <!-- Generator: Sketch 52.4 (67378) - http://www.bohemiancoding.com/sketch -->
    <title>011-instagram</title>
    <desc>Created with Sketch.</desc>
    <g id="011-instagram" stroke="none" stroke-width="1" fill="none" fill-rule="evenodd">
        <g id="Group" transform="translate(3.995000, 3.995000)" fill="#000000" fill-rule="nonzero">
            <g id="045-instagram">
                <g id="ICONSET-01">
                    <g id="045-instagram">
                        <path d="M41.7569277,12.3853578 C41.7178141,10.6560199 41.3902209,8.94535 40.7876608,7.32391205 C40.2629301,5.92973916 39.4387974,4.66762372 38.3733512,3.6265259 C37.3292428,2.55990891 36.065995,1.73271043 34.6709036,1.20209337 C33.3422741,0.695948795 31.8263711,0.331524699 29.5968042,0.230295783 C27.3672373,0.129066867 26.6611657,0.11388253 20.9923464,0.11388253 C15.3235271,0.11388253 14.6073325,0.139189759 12.3878886,0.240418675 C10.1684446,0.34164759 8.64748012,0.695948795 7.32644277,1.20968554 C5.92846775,1.73154721 4.66263106,2.55498911 3.61893373,3.62146446 C2.55751778,4.6668499 1.73402894,5.92884225 1.2046241,7.32138133 C0.698479518,8.64748012 0.334055422,10.1633831 0.235357229,12.3954807 C0.136659036,14.6275783 0.111351807,15.3311193 0.111351807,20.9999386 C0.111351807,26.6687578 0.136659036,27.3849524 0.235357229,29.6043964 C0.334055422,31.8238404 0.690887349,33.3448048 1.2046241,34.6658422 C1.7293221,36.0607713 2.55343461,37.3237195 3.61893373,38.365759 C4.66373033,39.4260823 5.9248416,40.2486963 7.31631988,40.777538 C8.64241867,41.2836825 10.1608524,41.6481066 12.3777657,41.7468048 C14.5946789,41.845503 15.3134042,41.873341 20.9822235,41.873341 C26.6510428,41.873341 27.3672373,41.8480337 29.5866813,41.7468048 C31.8061253,41.6455759 33.3270898,41.2912747 34.6607807,40.777538 C36.0551331,40.2543608 37.3173962,39.4309957 38.3581669,38.365759 C39.4195829,37.3203736 40.2430715,36.0583813 40.7724765,34.6658422 C41.2786211,33.3397434 41.6430452,31.8238404 41.7417434,29.6043964 C41.8404416,27.3849524 41.8657488,26.6712886 41.8657488,20.9999386 C41.8657488,15.3285886 41.8581566,14.6174554 41.7569277,12.3853578 Z M38.0013349,29.4424301 C37.9102289,31.4821928 37.5685813,32.585588 37.2800789,33.3220283 C36.945548,34.2293104 36.4129938,35.0506196 35.7211536,35.7262151 C35.0479952,36.4222289 34.2248516,36.9554112 33.3144361,37.2851404 C32.5779958,37.5660506 31.4746006,37.9152904 29.434838,38.0063964 C27.2280476,38.1076253 26.5751211,38.1329325 20.9948771,38.1329325 C15.4146331,38.1329325 14.7591759,38.1076253 12.5549163,38.0063964 C10.5151536,37.9152904 9.41175843,37.5761735 8.67278735,37.2851404 C7.76504423,36.9515306 6.94354303,36.4188519 6.2686006,35.7262151 C5.57290825,35.0537833 5.03974628,34.2315367 4.7096753,33.3220283 C4.42876506,32.585588 4.0795253,31.4821928 3.98841928,29.4424301 C3.88972108,27.2356398 3.86441386,26.5827133 3.86441386,20.9999386 C3.86441386,15.4171639 3.88972108,14.7667681 3.98841928,12.5599777 C4.0795253,10.5202151 4.41864217,9.41681988 4.7096753,8.68037952 C5.04420632,7.77309742 5.57676054,6.95178818 6.2686006,6.27619277 C6.94023072,5.5795274 7.76271768,5.04620952 8.67278735,4.71726747 C9.41175843,4.43635723 10.5151536,4.08711747 12.5549163,3.99601145 C14.7591759,3.89478253 15.4146331,3.8694753 20.9948771,3.8694753 C26.5751211,3.8694753 27.2280476,3.89478253 29.434838,3.99601145 C31.4746006,4.08711747 32.5779958,4.42623434 33.3144361,4.71726747 C34.2234341,5.04984348 35.0459767,5.58263667 35.7211536,6.27619277 C36.416846,6.94862457 36.9500079,7.77087112 37.2800789,8.68037952 C37.5609892,9.41681988 37.9102289,10.5202151 38.0013349,12.5599777 C38.1000331,14.7642373 38.1253404,15.4196946 38.1253404,20.9999386 C38.1253404,26.5801825 38.1025639,27.2356398 38.0038657,29.4424301 L38.0013349,29.4424301 Z" id="Shape"></path>
                        <path d="M21.005,10.2722042 C16.6658076,10.2691338 12.7520779,12.8803671 11.0889401,16.888181 C9.42580238,20.895995 10.3408196,25.5110316 13.4072824,28.581114 C16.4737452,31.6511962 21.0876993,32.5716571 25.0974724,30.9132483 C29.1072455,29.2548395 31.7230938,25.3441929 31.7251422,21.005 C31.7265419,15.0818011 26.9281964,10.277792 21.005,10.2722042 Z M21.005,27.964488 C18.1869534,27.9675592 15.6447766,26.2721019 14.564701,23.6692511 C13.4846254,21.0664003 14.0795354,18.0691816 16.0718341,16.0761582 C18.0641327,14.0831348 21.0611348,13.4871347 23.6643784,14.5662636 C26.2676218,15.6453925 27.9640036,18.1869525 27.9619572,21.005 C27.9605615,24.8470528 24.847052,27.961695 21.005,27.964488 Z" id="Shape"></path>
                        <path d="M34.6531886,9.84957349 C34.6489911,11.2295626 33.5286135,12.3457808 32.1486182,12.3448452 C30.7686231,12.3439095 29.6497598,11.2261731 29.6474339,9.84617957 C29.6451076,8.46618602 30.7601965,7.34468415 32.1401807,7.33909639 C32.8044259,7.33909606 33.4414281,7.60313946 33.910883,8.07306894 C34.3803377,8.54299839 34.6437373,9.18026731 34.6430657,9.84451205 L34.6531886,9.84957349 Z" id="Shape"></path>
                    </g>
                </g>
            </g>
        </g>
    </g>
</svg>
